X:238
T:Reel 238
M:4/4
K:Ddor
L:1/8
c>d (3cBA B>A (3CEC |D>C (3CCC D>G (3GFE |G>c (3ccc d>c (3ccc |G>C (3CCC D>C (3G,CD :||2 (3Bcd c>A G>E (3EDC |D2CD CDF>D (3ECD |ECCE GEFGAG||GEcE cGcG|EFDE FGAG| (3FEF A>F  (3FEF AF|D>A, (3A,G,A, DA,FG|A>c (3ccc d>c (3ccc |G>F (3FEF GECE| (3GAB  (3cBA c>D (3ECC |DCDC  (3B,CC DGFG|A>B (3cBA defd|cAFE F2ED|
